img/icons/arrow-right.svg

<svg width="7" height="11" viewBox="0 0 7 11" fill="none" xmlns="http://www.w3.org/2000/svg">
<path d="M0.792893 1.70711C0.402369 1.31658 0.402369 0.683417 0.792893 0.292893C1.18342 -0.0976311 1.81658 -0.0976311 2.20711 0.292893L0.792893 1.70711ZM6 5.5L6.70711 4.79289C7.09763 5.18342 7.09763 5.81658 6.70711 6.20711L6 5.5ZM2.20711 10.7071C1.81658 11.0976 1.18342 11.0976 0.792893 10.7071C0.402369 10.3166 0.402369 9.68342 0.792893 9.29289L2.20711 10.7071ZM2.20711 0.292893L6.70711 4.79289L5.29289 6.20711L0.792893 1.70711L2.20711 0.292893ZM6.70711 6.20711L2.20711 10.7071L0.792893 9.29289L5.29289 4.79289L6.70711 6.20711Z" fill="#5E7890" fill-opacity="0.7"/>
</svg>

<svg width="7" height="11" fill="none" xmlns="http://www.w3.org/2000/svg"><path d="M.793 1.707A1 1 0 012.207.293L.793 1.707zM6 5.5l.707-.707a1 1 0 010 1.414L6 5.5zm-3.793 5.207A1 1 0 01.793 9.293l1.414 1.414zm0-10.414l4.5 4.5-1.414 1.414-4.5-4.5L2.207.293zm4.5 5.914l-4.5 4.5L.793 9.293l4.5-4.5 1.414 1.414z" fill="#5E7890" fill-opacity=".7"/></svg>
